credit-card-off-outline.svg

<svg fill="currentColor" viewBox="0 0 24 24"><path d="m.93 4.2 1.28-1.27L20 20.72 18.73 22l-2-2H4a2 2 0 0 1-2-2V6c0-.22.04-.43.11-.62zM20 8V6H7.82l-2-2H20a2 2 0 0 1 2 2v12c0 .6-.26 1.13-.68 1.5l-1.5-1.5H20v-6h-6.18l-4-4zM4 8h.73L4 7.27zm0 4v6h10.73l-6-6z"/></svg>

<svg  viewBox="0 0 24 24" fill="currentColor"><path  d="M0.93,4.2L2.21,2.93L20,20.72L18.73,22L16.73,20H4C2.89,20 2,19.1 2,18V6C2,5.78 2.04,5.57 2.11,5.38L0.93,4.2M20,8V6H7.82L5.82,4H20A2,2 0 0,1 22,6V18C22,18.6 21.74,19.13 21.32,19.5L19.82,18H20V12H13.82L9.82,8H20M4,8H4.73L4,7.27V8M4,12V18H14.73L8.73,12H4Z"/></svg>
